src/static/logos/bosun.svg

<?xml version="1.0" encoding="UTF-8" standalone="no"?>
<svg width="256px" height="256px" viewBox="0 0 256 256" version="1.1" xmlns="http://www.w3.org/2000/svg" xmlns:xlink="http://www.w3.org/1999/xlink" preserveAspectRatio="xMidYMid">
    <defs>
        <path id="path-1" d="M256,9.14285714 C256,4.09344 251.90656,0 246.857143,0 L9.14285714,0 C4.09344,0 0,4.09344 0,9.14285714 L0,246.857143 C0,251.90656 4.09344,256 9.14285714,256 L246.857143,256 C251.90656,256 256,251.90656 256,246.857143 L256,9.14285714"></path>
    </defs>
	<g>
		<mask id="mask-2" fill="white">
			<use xlink:href="#path-1"></use>
		</mask>
		<use fill="#1F5296" xlink:href="#path-1"></use>
		<path d="M9.14285714,0 L246.857143,0 C251.90656,0 256,4.09344 256,9.14285714 L256,118.857143 C256,123.90656 251.90656,128 246.857143,128 L9.14285714,128 C4.09344,128 0,123.90656 0,118.857143 L0,9.14285714 C0,4.09344 4.09344,0 9.14285714,0" fill="#4BA2D9" mask="url(#mask-2)"></path>
		<path d="M9.14285714,128 L246.857143,128 C251.90656,128 256,132.09344 256,137.142857 L256,246.857143 C256,251.90656 251.90656,256 246.857143,256 L9.14285714,256 C4.09344,256 0,251.90656 0,246.857143 L0,137.142857 C0,132.09344 4.09344,128 9.14285714,128" fill="#1F5296" mask="url(#mask-2)"></path>
		<path d="M54.8571429,54.8571429 L128,128 L54.8571429,201.142857 L-18.2857143,128 L54.8571429,54.8571429" fill="#356EB6" mask="url(#mask-2)"></path>
		<path d="M54.8571429,205.021623 L-22.16448,128 L54.8571429,50.9783771 L131.878766,128 L54.8571429,205.021623 L54.8571429,205.021623 Z M-14.4069486,128 L54.8571429,197.264091 L124.121234,128 L54.8571429,58.7359086 L-14.4069486,128 L-14.4069486,128 Z" fill="#FFFFFF" mask="url(#mask-2)"></path>
		<path d="M201.142857,54.8571429 L274.285714,128 L201.142857,201.142857 L128,128 L201.142857,54.8571429" fill="#356EB6" mask="url(#mask-2)"></path>
		<path d="M201.142857,205.021623 L124.121234,128 L201.142857,50.9783771 L278.16448,128 L201.142857,205.021623 L201.142857,205.021623 Z M131.878766,128 L201.142857,197.264091 L270.406949,128 L201.142857,58.7359086 L131.878766,128 L131.878766,128 Z" fill="#FFFFFF" mask="url(#mask-2)"></path>
		<path d="M53.9428571,-19.2 L56.1371429,-19.2 L56.1371429,275.2 L53.9428571,275.2 L53.9428571,-19.2 Z" fill="#FFFFFF" mask="url(#mask-2)"></path>
		<path d="M127.085714,-19.2 L129.28,-19.2 L129.28,275.2 L127.085714,275.2 L127.085714,-19.2 Z" fill="#FFFFFF" mask="url(#mask-2)"></path>
		<path d="M200.228571,-19.2 L202.422857,-19.2 L202.422857,275.2 L200.228571,275.2 L200.228571,-19.2 Z" fill="#FFFFFF" mask="url(#mask-2)"></path>
		<path d="M54.8571429,32 C67.4808686,32 77.7142857,42.2334171 77.7142857,54.8571429 C77.7142857,67.4808686 67.4808686,77.7142857 54.8571429,77.7142857 C42.2334171,77.7142857 32,67.4808686 32,54.8571429 C32,42.2334171 42.2334171,32 54.8571429,32" fill="#1F5296" mask="url(#mask-2)"></path>
		<path d="M54.8571429,82.2857143 C39.7330286,82.2857143 27.4285714,69.9812571 27.4285714,54.8571429 C27.4285714,39.7330286 39.7330286,27.4285714 54.8571429,27.4285714 C69.9812571,27.4285714 82.2857143,39.7330286 82.2857143,54.8571429 C82.2857143,69.9812571 69.9812571,82.2857143 54.8571429,82.2857143 L54.8571429,82.2857143 Z M54.8571429,36.5714286 C44.7744,36.5714286 36.5714286,44.7744 36.5714286,54.8571429 C36.5714286,64.9398857 44.7744,73.1428571 54.8571429,73.1428571 C64.9398857,73.1428571 73.1428571,64.9398857 73.1428571,54.8571429 C73.1428571,44.7744 64.9398857,36.5714286 54.8571429,36.5714286 L54.8571429,36.5714286 Z" fill="#FFFFFF" mask="url(#mask-2)"></path>
		<path d="M201.142857,32 C213.766583,32 224,42.2334171 224,54.8571429 C224,67.4808686 213.766583,77.7142857 201.142857,77.7142857 C188.519131,77.7142857 178.285714,67.4808686 178.285714,54.8571429 C178.285714,42.2334171 188.519131,32 201.142857,32" fill="#1F5296" mask="url(#mask-2)"></path>
		<path d="M201.142857,82.2857143 C186.018743,82.2857143 173.714286,69.9812571 173.714286,54.8571429 C173.714286,39.7330286 186.018743,27.4285714 201.142857,27.4285714 C216.267337,27.4285714 228.571429,39.7330286 228.571429,54.8571429 C228.571429,69.9812571 216.267337,82.2857143 201.142857,82.2857143 L201.142857,82.2857143 Z M201.142857,36.5714286 C191.060114,36.5714286 182.857143,44.7744 182.857143,54.8571429 C182.857143,64.9398857 191.060114,73.1428571 201.142857,73.1428571 C211.2256,73.1428571 219.428571,64.9398857 219.428571,54.8571429 C219.428571,44.7744 211.2256,36.5714286 201.142857,36.5714286 L201.142857,36.5714286 Z" fill="#FFFFFF" mask="url(#mask-2)"></path>
		<path d="M54.8571429,178.285714 C67.4808686,178.285714 77.7142857,188.519131 77.7142857,201.142857 C77.7142857,213.766583 67.4808686,224 54.8571429,224 C42.2334171,224 32,213.766583 32,201.142857 C32,188.519131 42.2334171,178.285714 54.8571429,178.285714" fill="#4BA2D9" mask="url(#mask-2)"></path>
		<path d="M54.8571429,228.571429 C39.7330286,228.571429 27.4285714,216.266971 27.4285714,201.142857 C27.4285714,186.018743 39.7330286,173.714286 54.8571429,173.714286 C69.9812571,173.714286 82.2857143,186.018743 82.2857143,201.142857 C82.2857143,216.266971 69.9812571,228.571429 54.8571429,228.571429 L54.8571429,228.571429 Z M54.8571429,182.857143 C44.7744,182.857143 36.5714286,191.060114 36.5714286,201.142857 C36.5714286,211.2256 44.7744,219.428571 54.8571429,219.428571 C64.9398857,219.428571 73.1428571,211.2256 73.1428571,201.142857 C73.1428571,191.060114 64.9398857,182.857143 54.8571429,182.857143 L54.8571429,182.857143 Z" fill="#FFFFFF" mask="url(#mask-2)"></path>
		<path d="M201.142857,178.285714 C213.766583,178.285714 224,188.519131 224,201.142857 C224,213.766583 213.766583,224 201.142857,224 C188.519131,224 178.285714,213.766583 178.285714,201.142857 C178.285714,188.519131 188.519131,178.285714 201.142857,178.285714" fill="#4BA2D9" mask="url(#mask-2)"></path>
		<path d="M201.142857,228.571429 C186.018743,228.571429 173.714286,216.266971 173.714286,201.142857 C173.714286,186.018743 186.018743,173.714286 201.142857,173.714286 C216.267337,173.714286 228.571429,186.018743 228.571429,201.142857 C228.571429,216.266971 216.267337,228.571429 201.142857,228.571429 L201.142857,228.571429 Z M201.142857,182.857143 C191.060114,182.857143 182.857143,191.060114 182.857143,201.142857 C182.857143,211.2256 191.060114,219.428571 201.142857,219.428571 C211.2256,219.428571 219.428571,211.2256 219.428571,201.142857 C219.428571,191.060114 211.2256,182.857143 201.142857,182.857143 L201.142857,182.857143 Z" fill="#FFFFFF" mask="url(#mask-2)"></path>
	</g>
</svg>

<svg width="256" height="256" xmlns="http://www.w3.org/2000/svg" xmlns:xlink="http://www.w3.org/1999/xlink" preserveAspectRatio="xMidYMid"><defs><path id="a" d="M256 9.143A9.143 9.143 0 00246.857 0H9.143A9.143 9.143 0 000 9.143v237.714A9.143 9.143 0 009.143 256h237.714a9.143 9.143 0 009.143-9.143V9.143"/></defs><mask id="b" fill="#fff"><use xlink:href="#a"/></mask><use fill="#1F5296" xlink:href="#a"/><path d="M9.143 0h237.714A9.143 9.143 0 01256 9.143v109.714a9.143 9.143 0 01-9.143 9.143H9.143A9.143 9.143 0 010 118.857V9.143A9.143 9.143 0 019.143 0" fill="#4BA2D9" mask="url(#b)"/><path d="M9.143 128h237.714a9.143 9.143 0 019.143 9.143v109.714a9.143 9.143 0 01-9.143 9.143H9.143A9.143 9.143 0 010 246.857V137.143A9.143 9.143 0 019.143 128" fill="#1F5296" mask="url(#b)"/><path d="M54.857 54.857L128 128l-73.143 73.143L-18.286 128l73.143-73.143" fill="#356EB6" mask="url(#b)"/><path d="M54.857 205.022L-22.164 128l77.021-77.022L131.88 128l-77.022 77.022zM-14.407 128l69.264 69.264L124.121 128 54.857 58.736-14.407 128z" fill="#FFF" mask="url(#b)"/><path d="M201.143 54.857L274.286 128l-73.143 73.143L128 128l73.143-73.143" fill="#356EB6" mask="url(#b)"/><path d="M201.143 205.022L124.12 128l77.022-77.022L278.164 128l-77.021 77.022zM131.879 128l69.264 69.264L270.407 128l-69.264-69.264L131.879 128zM53.943-19.2h2.194v294.4h-2.194V-19.2z" fill="#FFF" mask="url(#b)"/><path d="M127.086-19.2h2.194v294.4h-2.194V-19.2zm73.143 0h2.194v294.4h-2.194V-19.2z" fill="#FFF" mask="url(#b)"/><path d="M54.857 32c12.624 0 22.857 10.233 22.857 22.857 0 12.624-10.233 22.857-22.857 22.857C42.233 77.714 32 67.481 32 54.857 32 42.233 42.233 32 54.857 32" fill="#1F5296" mask="url(#b)"/><path d="M54.857 82.286c-15.124 0-27.428-12.305-27.428-27.429 0-15.124 12.304-27.428 27.428-27.428s27.429 12.304 27.429 27.428S69.98 82.286 54.857 82.286zm0-45.715c-10.083 0-18.286 8.203-18.286 18.286 0 10.083 8.203 18.286 18.286 18.286 10.083 0 18.286-8.203 18.286-18.286 0-10.083-8.203-18.286-18.286-18.286z" fill="#FFF" mask="url(#b)"/><path d="M201.143 32C213.767 32 224 42.233 224 54.857c0 12.624-10.233 22.857-22.857 22.857-12.624 0-22.857-10.233-22.857-22.857 0-12.624 10.233-22.857 22.857-22.857" fill="#1F5296" mask="url(#b)"/><path d="M201.143 82.286c-15.124 0-27.429-12.305-27.429-27.429 0-15.124 12.305-27.428 27.429-27.428 15.124 0 27.428 12.304 27.428 27.428s-12.304 27.429-27.428 27.429zm0-45.715c-10.083 0-18.286 8.203-18.286 18.286 0 10.083 8.203 18.286 18.286 18.286 10.083 0 18.286-8.203 18.286-18.286 0-10.083-8.203-18.286-18.286-18.286z" fill="#FFF" mask="url(#b)"/><path d="M54.857 178.286c12.624 0 22.857 10.233 22.857 22.857 0 12.624-10.233 22.857-22.857 22.857C42.233 224 32 213.767 32 201.143c0-12.624 10.233-22.857 22.857-22.857" fill="#4BA2D9" mask="url(#b)"/><path d="M54.857 228.571c-15.124 0-27.428-12.304-27.428-27.428s12.304-27.429 27.428-27.429 27.429 12.305 27.429 27.429c0 15.124-12.305 27.428-27.429 27.428zm0-45.714c-10.083 0-18.286 8.203-18.286 18.286 0 10.083 8.203 18.286 18.286 18.286 10.083 0 18.286-8.203 18.286-18.286 0-10.083-8.203-18.286-18.286-18.286z" fill="#FFF" mask="url(#b)"/><path d="M201.143 178.286c12.624 0 22.857 10.233 22.857 22.857C224 213.767 213.767 224 201.143 224c-12.624 0-22.857-10.233-22.857-22.857 0-12.624 10.233-22.857 22.857-22.857" fill="#4BA2D9" mask="url(#b)"/><path d="M201.143 228.571c-15.124 0-27.429-12.304-27.429-27.428s12.305-27.429 27.429-27.429c15.124 0 27.428 12.305 27.428 27.429 0 15.124-12.304 27.428-27.428 27.428zm0-45.714c-10.083 0-18.286 8.203-18.286 18.286 0 10.083 8.203 18.286 18.286 18.286 10.083 0 18.286-8.203 18.286-18.286 0-10.083-8.203-18.286-18.286-18.286z" fill="#FFF" mask="url(#b)"/></svg>
